symbols/web/nature/materialsymbolsrounded/nature_wght300gradN25fill1_20px.svg

<svg xmlns="http://www.w3.org/2000/svg" height="20" width="20"><path d="M5.333 17.812q-.25 0-.448-.187-.197-.187-.197-.437t.197-.438q.198-.188.448-.188h4.042v-3.52H7.583q-1.562 0-2.625-1.052-1.062-1.052-1.062-2.615 0-1.146.677-2.073t1.739-1.385Q6.5 4.312 7.521 3.375 8.542 2.438 10 2.438q1.438 0 2.458.937 1.021.937 1.209 2.542 1.083.437 1.76 1.375.677.937.677 2.083 0 1.563-1.062 2.615-1.063 1.052-2.625 1.052h-1.792v3.52h4.042q.229 0 .427.198.198.198.198.428 0 .25-.198.437t-.427.187Z"/></svg>

<svg xmlns="http://www.w3.org/2000/svg" height="20" width="20"><path d="M5.333 17.812Q5.083 17.812 4.885 17.625Q4.688 17.438 4.688 17.188Q4.688 16.938 4.885 16.75Q5.083 16.562 5.333 16.562H9.375V13.042H7.583Q6.021 13.042 4.958 11.99Q3.896 10.938 3.896 9.375Q3.896 8.229 4.573 7.302Q5.25 6.375 6.312 5.917Q6.5 4.312 7.521 3.375Q8.542 2.438 10 2.438Q11.438 2.438 12.458 3.375Q13.479 4.312 13.667 5.917Q14.75 6.354 15.427 7.292Q16.104 8.229 16.104 9.375Q16.104 10.938 15.042 11.99Q13.979 13.042 12.417 13.042H10.625V16.562H14.667Q14.896 16.562 15.094 16.76Q15.292 16.958 15.292 17.188Q15.292 17.438 15.094 17.625Q14.896 17.812 14.667 17.812Z"/></svg>
